X: 9746
T: Delaney's
R: jig
M: 6/8
K: Dmixolydian
A2A DFA|ded d^cA|GEE cEE|1 GEG c3:|2 DEd d3||
ded edA|~d3 d^cA|GEE cEE|1 GEG c3:|2 DED d2B||

